X:1
T:NATIONAL FRONT DISCO
C:Whyte
Z:All Rights Reserved
L:1/8
Q:1/4=120
M:4/4
K:F
V:1 treble nm="MusicXML Part"
%%MIDI program 0
V:1
"F" CcFE FCEF |"Bb" CcEF CEDC |"C" CcEF DECD |"Bb" CcEF DE C2 |:"Dm" D>A- A2 G/"A" A2 A3/2 | %5
w: ||||Dav id _ the wind blows|
w: ||||Dav id _ the winds blow|
w: ||||Dav id _ we won der|
"Bb" z2 z2 G/"C" A2 A3/2 |"Dm" DA-AD-"G" D2 A>A |"F" A<F- F>F"A" G>A- AB/-A/ | %8
w: the wind blows|bits of _ your _ life a|way _ _ Your friends all _ say _|
w: the winds blow|all of _ my _ dreams a|way _ _ And I still _ say _|
w: der if the|thun der is ev er gon na|be gin _ be gin _ _ _ a|
"Bb" z A A/G"Cbdim"F/- D2 A2- |"F/C" A2 z A"Dbdim" GAB-A |"Dm" z G/A/ G<A"Bb/F" AG/F/ z/ F/F/G/ | %11
w: Where is our boy? _ Ahh|_ we've lost our boy _|But they should know where you've gone be cuz a|
w: ||But I should know why you've gone * * *|
w: * * * your _ Mum|says I've lost my boy _|But she should know why you've gone * * *|
"F" A/G/F- F/GA/-"G" A<F F/G/A/G/ |"F""^FIRST CHORUS:" z/ B3- B2 z/ A-G |"C7" B6 FG |"F" A4 ABAF- | %15
w: gain and again _ you've ex _ plained that you're go ing|* * Woh _|_ go ing|to yea yea yea yea|
w: * * * * * * * * you've gone to the|TO.... _ _ _|_ _ _||
w: ||||
"Bb" F4 FG AB/A/- | A"C"G/-G/- G3/2 z/ c>c- c/B/A/"Bb"A/- | A/F-F/- F3/2 :| %18
w: _ En gland for the En|_ glish _ _ En gland _ for the En|_ glish _ _|
w: |||
w: |||
"F""^SECOND CHORUS" cA- A2- Ac-cc |"C7" B6- Bc/c/ |"F" cA- Af/f/ fc z/ c/f | %21
w: Nash 'nal _ _ Ahh _ _|_ _ To the|Nash 'nel _ There's a coun try You don't|
w: |||
w: |||
"Bb" fd/e/ z d"C" fe d/cc/- |"F" cA- A/A/e/e/ ed ef/e/- |"Bb" e<d f2-"C" ff e/dc/ :| %24
w: live there _ but one day U would like|_ to _ and if you show them what you're made|_ of OH~ _ THEN U MIGHT DO!|
w: |||
w: |||
"F""^THIRD CHORUS" cA- AA/B/ cA- A2 |"C" z c- c2- c3 c/c/ |:"F" cA-Ac cA- A/c/c/c/ | %27
w: Nash 'nal _ to the Nash 'nal _|Ahh _ _ to the|Nash 'nal _ Front Dis co _ be cuz you|
w: |||
w: |||
"Bb" ff/f/- f/d/d fd- d>d |"C7" ff/f/ z/ e/d cA- A>f |"Bb" ed/e/- e/d/e ff- ff/f/ | %30
w: want the day _ to come soon er _ You|want the day to come soon er _ You|want the day _ to come soon er _ when you|
w: |||
w: |||
"C7" f/e/d/c/- cc/f/"F" fc- c2 ::"F" CcFE FCEF |"Bb" CcEF CEDC |"C" CcEF DECD | %34
w: set tle the score _ to the Nash 'nal _|_ _ _ _ _ _ _ _|||
w: ||||
w: ||||
"Bb""^repeat and fade out" CcEF DE C2 :| %35
w: |
w: |
w: |

